_inc/systems/logos/ps3.svg

<?xml version="1.0" encoding="utf-8"?>
<svg version="1.0" viewBox="0 0 264 56" xmlns="http://www.w3.org/2000/svg">
  <path d="M 168.995 0 L 134.365 0 C 123.684 0 118.45 6.557 118.45 15.071 L 118.45 40.937 C 118.45 46.22 115.939 50.013 110.638 50.013 L 80.349 50.013 C 80.136 50.013 79.961 50.188 79.961 50.388 L 79.961 55.608 C 79.961 55.821 80.136 56 80.349 56 L 114.633 56 C 125.31 56 130.557 49.472 130.557 40.954 L 130.557 15.071 C 130.557 9.784 133.049 5.982 138.38 5.982 L 168.995 5.982 C 169.235 5.982 169.424 5.812 169.424 5.599 L 169.424 0.387 C 169.424 0.183 169.235 0 168.995 0 Z" id="path30" style="fill:#ffffff;fill-opacity:1"/>
  <path d="M 67.057 0 L 0.418 0 C 0.176 0 0 0.183 0 0.387 L 0 5.599 C 0 5.812 0.176 5.991 0.418 5.991 L 63.049 5.991 C 68.344 5.991 70.857 9.784 70.857 15.071 C 70.857 20.338 68.344 24.123 63.049 24.123 L 13.502 24.123 C 5.807 24.123 0 30.544 0 39.062 L 0 55.595 C 0 55.821 0.176 56 0.419 56 L 11.709 56 C 11.93 56 12.115 55.821 12.115 55.595 L 12.115 39.062 C 12.115 33.808 15.153 30.101 19.562 30.101 L 67.057 30.101 C 77.717 30.101 82.943 23.593 82.943 15.075 C 82.943 6.57 77.717 0 67.057 0 Z" id="path32" style="fill:#ffffff;fill-opacity:1"/>
  <path d="M 259.037 27.301 C 258.888 27.135 258.888 26.85 259.037 26.688 C 262.357 23.956 264 19.839 264 15.075 C 264 6.57 258.784 0 248.093 0 L 181.471 0 C 181.244 0 181.077 0.183 181.077 0.405 L 181.077 5.599 C 181.077 5.812 181.244 5.991 181.471 5.991 L 244.092 5.991 C 249.371 5.991 251.919 9.784 251.919 15.071 C 251.919 20.338 249.388 24.123 244.092 24.123 L 244.014 24.123 L 181.471 24.136 C 181.244 24.136 181.077 24.298 181.077 24.535 L 181.077 29.725 C 181.077 29.934 181.244 30.101 181.471 30.101 L 244.092 30.101 C 250.997 30.181 251.906 36.863 251.906 40.281 L 251.919 40.924 C 251.919 46.22 249.371 50.03 244.092 50.03 L 181.471 50.03 C 181.244 50.03 181.077 50.192 181.077 50.404 L 181.077 55.608 C 181.077 55.821 181.244 56 181.471 56 L 248.093 56 C 258.794 56 264 48.943 264 40.924 L 264 40.281 C 264 35.167 262.357 30.284 259.037 27.301 Z" id="path34" style="fill:#ffffff;fill-opacity:1"/>
</svg>

<svg xmlns="http://www.w3.org/2000/svg" viewBox="0 0 264 56"><path d="M169 0h-34.63c-10.69 0-15.92 6.56-15.92 15.07v25.87c0 5.28-2.51 9.07-7.81 9.07h-30.3a.4.4 0 0 0-.38.38v5.22c0 .21.18.39.39.39h34.28c10.68 0 15.93-6.53 15.93-15.05V15.07c0-5.29 2.49-9.09 7.82-9.09H169c.24 0 .42-.17.42-.38V.39c0-.2-.18-.39-.42-.39M67.06 0H.42C.18 0 0 .18 0 .39v5.2c0 .22.18.4.42.4h62.63c5.3 0 7.8 3.8 7.8 9.08 0 5.27-2.5 9.05-7.8 9.05H13.5C5.8 24.12 0 30.54 0 39.06V55.6c0 .23.18.41.42.41H11.7a.4.4 0 0 0 .4-.4V39.06c0-5.25 3.04-8.96 7.45-8.96h47.5c10.66 0 15.88-6.5 15.88-15.03C82.94 6.57 77.72 0 67.06 0m191.98 27.3a.5.5 0 0 1 0-.61c3.32-2.73 4.96-6.85 4.96-11.62C264 6.57 258.78 0 248.1 0h-66.63a.4.4 0 0 0-.4.4v5.2c0 .21.17.4.4.4h62.62c5.28 0 7.83 3.78 7.83 9.07 0 5.27-2.53 9.05-7.83 9.05h-.08l-62.54.02c-.23 0-.4.16-.4.4v5.19c0 .2.17.37.4.37h62.62c6.9.08 7.82 6.76 7.82 10.18v.64c0 5.3-2.54 9.11-7.82 9.11h-62.62c-.23 0-.4.16-.4.37v5.2c0 .22.17.4.4.4h66.62C258.8 56 264 48.94 264 40.92v-.64c0-5.11-1.64-10-4.96-12.98" style="fill:#fff;fill-opacity:1"/></svg>
